Adwaita++/actions/22/folder-sync.svg

<svg height="22" width="22" xmlns="http://www.w3.org/2000/svg">
  <path d="m2 2s-1 0-1 1v11s0 1 1 1h12s1 0 1-1v-9c0-1-1-1-1-1h-5l-2-2zm5 4v6h-2v-3h-1zm2 1h2v3h1l-3 3z" fill="#444" transform="translate(3 3)"/>
</svg>

<svg xmlns="http://www.w3.org/2000/svg" width="22" height="22" version="1.1">
 <defs>
  <style id="current-color-scheme" type="text/css">
   .ColorScheme-Text { color:#444444; } .ColorScheme-Highlight { color:#4285f4; }
  </style>
 </defs>
 <g transform="matrix(1,0,0,1,3,3)">
  <path class="ColorScheme-Text" d="M 2,2 C 2,2 1,2 1,3 V 14 C 1,14 1,15 2,15 H 14 C 14,15 15,15 15,14 V 5 C 15,4 14,4 14,4 H 9 L 7,2 Z M 7,6 V 12 H 5 V 9 H 4 Z M 9,7 H 11 V 10 H 12 L 9,13 Z" style="fill:currentColor"/>
 </g>
</svg>
